X: 23737
T: Little Beggarman, The
R: reel
M: 4/4
K: Amixolydian
|:EAA^G ABcd|efec d2 (3Bcd|eA A2 ABcA|B=GEF G2 FG|
EAA^G ABcd|efec d2 (3Bcd|ea a2 afed|cAA^G A2 ef:|
|:g3a gfef|gfec d2 (3Bcd|eA A2 ABcA|B=GEF G2 FG|
EAA^G ABcd|e3c d2 (3Bcd|ea a2 afed|cAA^G A4:|

